X:11
T:La prison du roi François
R:Chanson
O:France
B:Le livre des Chansons (Henri Davenson) n°11
Z:<anamnese@caramail.com> -- http://anamnese.fr.st
M:6/8
L:1/8
Q:1/4=110
K:C
G G A | B3 A B A | G3 D z2 | [M:3/8] G2 A2 B2 | [M:6/8] A2 z G G B |
 d2 B G2 B | [M:3/8] A4 z4 | [M:6/8] c3 A2 ^F | G2 z G G B |
 d2 B G2 B | A2 z G G B | d2 B G2 B | A2 z ||
W:Quand le roi départit de France,
W:Vive le roi !
W:à la male heure il départit.
W:Vive le roi !
W:à la male heure il départit.(2x)
W:
W:Il départit jour de dimanche, et jour de lundi il fut pris. /.../

